X: 13248
T: Fishing In The Rain
R: jig
M: 6/8
K: Gdorian
|:~d3 dcB|GFD ~C3|DCD ~F3|GFG Bcf|
~d3 dcB|GFD ~C3|DCD ~F3|GFD G3:|
|:~G3 Bcd|dgf d3|~g3 ~f3|dcB GFD|
~G3 Bcd|dgf d3|dcB GFD|CDF G3:|

